!! 00000] TT[
!!!OTL: Fang mian hua
!!!ARE: Asia, China,ÿHubei
!! Ethnic Group: Han
!! MM, ZHONGGUO MINGE XUAN S.149
!!!SCT: C1312
!!!YEM: Copyright 1995, estate of Helmut Schaffrath.
**kern
*ICvox
*Ivox
*M2/4
*k[b-e-]
*B-:
{8dd
8cc
8dd
8cc
=1
8b-
16b-
16dd
4cc}
=2
{16cc
8cc
16dd
8dd
16cc
16dd
=3
4ff
16dd
16cc
16b-
16g
=4
8g
8dd
16cc
16b-
8g
=5
8.f
16d
4f}
=6
{8dd
8cc
8dd
8cc
=7
8dd
8g
4b-
=8
8g
8dd
16cc
16b-
8g
=9
8f
4.f}
=10
{8.cc
16dd
4ff
=11
8.dd
16cc
4b-
=12
8g
8dd
16cc
16b-
8g
=13
8f
4.f}
==
!!!AGN: Xiaodiao. Fangmianhua qingjing
!! Pinyin-Text der ersten Strophe vorhanden!
!!!ONB: ESAC (Essen Associative Code) Database: CHINA
!!!AMT: simple duple
!!!AIN: vox
!!!EED: Helmut Schaffrath
!!!EEV: 1.0
*-
!!!OTL: Masangshu
!!!ARE: Asia, China,ÿHubei, Badong
!! I, 458
!!!SCT: C1459
!!!YEM: Copyright 1995, estate of Helmut Schaffrath.
**kern
*ICvox
*Ivox
!! Mixed meters:  2/4; 3/4
*M2/4
*k[f#]
*G:
{8g
8g
8g
8e
=1
8dd
8ee
8dd
8b
=2
8b
16b
16a
8g
8a
=3
16b
16dd
4.a}
=4
{8dd
8dd
8a
8b
=5
4dd
4b
=6
8a
8a
8b
16a
16b
=7
4.dd
8b}
=8
*M3/4
{8e
8dd
8b
8a
8e
8g
=9
*M2/4
8a
8a
16b
16dd
16b
16a
=10
2g}
==
!!!AGN: Xiaodiao, Qingge
!!!ONB: ESAC (Essen Associative Code) Database: HUANG
!!!AMT: irregular
!!!AIN: vox
!!!EED: Helmut Schaffrath
!!!EEV: 1.0
*-
